X:1
T:Title
%%score 1 2 3 4
L:1/8
M:4/4
K:F
V:1 treble nm="Part_1"
V:2 treble-8 nm="Part_2"
V:3 bass nm="Part_3"
V:4 bass nm="Part_4"
V:1
 z2 G4 G2 | G4 G4 | z2 E4 F2 | F4 E4 | F8 | z8 | z8 | z8 | z2 C4 C2 | D4 D4 | z2 D4 E2 | F6 F2 | %12
 E8 | z8 | z8 | z8 | z4 z2 F2 | E2 EF D2 D2 | D3 ^C D4 | z8 | z8 | z8 | z8 | z2 D2 C2 CD | %24
 B,2 C2 A,3 A, | =B,4 z B,B,C | D>D D2 z2 D2 | DD/D/ DC D2 D2 | DD/D/ DD/C/ E2 E2 | z2 EF D2 F2 | %30
 F3 E F2 FF | _EEDD C4 | D2 FG EGFE | D4 E4 | z2 E4 EE | A2 A2 z2 A2 | D4 _EFGG | G2 ^F2 G2 D2- | %38
 D2 DD G2 GG | C4 z2 CC | E2 EC D2 F2 | F4 E4 | F4 z4 | z2 F2 E E2 D/C/ | D>D DG F F2 E/D/ | %45
 D2 DF G4- | G2 FE D4 | E4 z4 | z4 z2 G2 | F F2 E/D/ E2 EF | G2 DE F4- | F4 E4 | F4 z4 | %53
 z2 F2 E2 DC | D2 D2 z4 | z4 C2 CC | D2 DC D2 DF | F4 E4 | F8 |[M:6/2] z24 | z24 | z24 | z24 | %63
 z24 | z8 C8 D8 | E16 E8 | F16 F8 | z24 | z8 F8 C8 | D12 C4 B,8 | C12 C4 C8 | z8 F8 D8 | %72
 E12 D4 C8 | D12 D4 D8 | z24 | G12 F4 E8 | D24 | C16 z8 | G12 F4 E8 | D24 | E16 z8 | z24 | z24 | %83
 z24 | z24 | z24 | z24 | z24 | z8 C8 D8 | E16 E8 | F16 F8 | z24 | z8 F8 C8 | D12 C4 B,8 | %94
 C12 C4 C8 | z8 F8 D8 | E12 D4 C8 | D12 D4 D8 | z24 | G12 F4 E8 | D24 | C16 z8 | G12 F4 E8 | D24 | %104
 E16 z8 | z24 | z24 | z24 | F12 E4 D8 | C24 |[M:4/4] D2 DD C2 B,B, | A,2 A,2 z GGG | %112
 FF/F/ _EE DEFE | D4 C4 | z4 z2 A,B, | CC/C/ CB, D2 D2 | D3 E F4- | F4 E4 | F8- | F8 |] %120
V:2
 z8 | z8 | z8 | z8 | z2 c4 A2 | z2 Bc G2 G2 | A>BA>B c2 c2 | c6 =B2 | c8 | z8 | z8 | z8 | %12
 z2 c4 G2 | z ABc G2 G2 | z2 B4 _A2 | _A4 G3 F | F4 z2 A2 | G2 GA F2 G2 | E3 E ^F4 | %19
 z F^FG A>A A2 | z2 A2 A2 AA | AA/A/ AA/A/ B3 B | c3 c d2 d2 | z2 B2 A2 AB | G2 G2 G3 ^F | %25
 G4 z GGA | =B>B B2 z2 B2 | =BB/B/ BA B2 B2 | =BB/B/ BB/A/ c2 c2 | z2 GA F2 F2 | G3 G A2 AB | %31
 GAFB (B2 A2) | B2 dB cGAc | (c2 =B2) c4 | z2 ^c4 cc | d2 d2 z2 d2 | B4 c2 cB | A4 G2 =B2- | %38
 B2 =BB c2 cc | A4 z2 AA | B2 Bc B2 F2 | G8 | A4 z4 | z4 z2 c2 | B B2 A/G/ A>A Ad | %45
 c c2 B/c/ G2 GG | ABcc c2 =B2 | c4 z4 | z2 c2 B B2 A/G/ | A>A Ad c c2 B/A/ | B2 AG A2 Bc | G8 | %52
 A4 z2 c2 | c2 cB c2 c2 | z2 G2 G2 G^F | G2 G2 F2 FF | F2 FF F2 FF | G8 | A8 |[M:6/2] z8 F8 G8 | %60
 A16 =B8 | c16 c8 | z8 c8 G8 | A12 G4 F8 | G12 G4 G8 | z24 | z24 | z8 c8 G8 | A12 G4 A8 | B16 B8 | %70
 F16 z8 | z24 | z8 c8 A8 | =B12 B4 B8 | c16 =B8 | c16 z8 | z24 | z8 c8 A8 | =B12 B4 c8 | c16 =B8 | %80
 c16 z8 | c12 B4 A8 | G24 | F8 F8 G8 | A16 =B8 | c16 c8 | z8 c8 G8 | A12 G4 F8 | G12 G4 G8 | z24 | %90
 z24 | z8 c8 G8 | A12 G4 A8 | B16 B8 | A16 z8 | z24 | z8 c8 A8 | =B12 B4 B8 | c16 =B8 | c16 z8 | %100
 z24 | z8 c8 A8 | =B12 B4 c8 | c16 =B8 | c16 z8 | c12 B4 A8 | G24 | F8 f8 c8 | d12 c4 B8 | B16 A8 | %110
[M:4/4] A2 AA A2 GG | ^F2 F2 z _eee | dd/d/ cc =Bcdc | c2 =B2 c4 | z4 z2 FG | AA/A/ AG B2 B2 | %116
 z2 d4 c2 | G8 | A8- | A8 |] %120
V:3
 z8 | z8 | z8 | z8 | z8 | z8 | z8 | z8 | z8 | z8 | z8 | z8 | z8 | z8 | z8 | z8 | z4 z2 F,,2 | %17
 C,2 C,A,, B,,2 G,,2 | A,,3 A,, D,,4 | z D,D,E, ^F,>F, F,2 | z2 ^F,2 F,2 F,F, | %21
 ^F,F,/F,/ F,F,/F,/ G,2 D,2 | _E,2 F,2 B,,2 B,,2 | z2 B,,2 F,2 F,D, | _E,2 C,2 D,3 D, | G,,4 z4 | %26
 z8 | z8 | z8 | z2 C,A,, B,,2 F,,2 | C,3 C, F,,2 F,D, | _E,C,D,B,, F,4 | B,,2 B,G, A,E,F,C, | %33
 G,4 C,4 | z2 A,,4 A,,A,, | ^F,,2 F,,2 z2 ^F,2 | G,4 C,2 C,C, | D,4 G,,2 G,2- | G,2 G,G, E,2 E,E, | %39
 F,4 z2 F,F, | B,,2 B,,A,, B,,2 D,2 | C,8 | F,,3 F, E,2 D,C, | D,4 C,4 | z8 | z8 | z8 | %47
 z2 C,2 B,,2 A,,G,, | A,,4 G,,4 | z8 | z8 | z8 | z2 F,2 E, E,2 D,/C,/ | D,3 D, C,2 z C, | %54
 B,, B,,2 A,,/G,,/ A,,3 A,, | G,,4 A,,2 A,,A,, | B,,2 B,,A,, B,,2 B,,D, | C,8 | F,,8 |[M:6/2] z24 | %60
 z24 | z8 C,8 D,8 | E,16 E,8 | F,16 F,8 | z24 | z8 C,8 G,,8 | A,,12 G,,4 F,,8 | C,12 C,4 C,8 | %68
 z24 | z24 | z8 F,,8 G,,8 | A,,16 =B,,8 | C,16 C,8 | G,12 G,4 F,8 | G,24 | C,16 z8 | z8 G,8 D,8 | %77
 E,12 D,4 C,8 | G,12 G,4 G,8 | z24 | z8 B,8 G,8 | A,12 G,4 F,8 | F,16 E,8 | F,16 z8 | z24 | %85
 z8 C,8 D,8 | E,16 E,8 | F,16 F,8 | z24 | z8 C,8 G,,8 | A,,12 G,,4 F,,8 | C,12 C,4 C,8 | z24 | %93
 z24 | z8 F,,8 G,,8 | A,,16 =B,,8 | C,16 C,8 | G,12 G,4 F,8 | G,24 | C,24 | z8 G,8 D,8 | %101
 E,12 D,4 C,8 | G,12 G,4 G,8 | z24 | z8 B,8 G,8 | A,12 G,4 F,8 | F,16 E,8 | F,16 z8 | z24 | z24 | %110
[M:4/4] z2 B,,B,, F,2 G,G, | D,2 D,2 z _E,E,E, | B,,B,,/B,,/ C,C, G,,G,,F,,F,, | G,,4 C,2 C,D, | %114
 E,E,/E,/ E,D, F,2 F,2 | z4 B,,4- | B,,4 A,,4 | C,8 | F,,8- | F,,8 |] %120
V:4
 F,,8 | C,8 | z2 C,4 A,,2 | G,,8 | F,,8 | F,,4 C,4 | F,,4 E,,4 | G,,8 | C,8 | G,8 | z2 G,4 E,2 | %11
 D,8 | C,8 | F,,4 C,4 | B,,4 C,4 | C,8 | F,,4 z2 F,,2 | C,2 C,A,, B,,2 G,,2 | A,,3 A,, D,4 | %19
 z D,D,E, ^F,2 F,2 | z2 ^F,2 F,4- | F,4 G,2 D,2 | _E,2 F,2 B,,2 B,,2 | z2 B,,2 F,2 F,D, | %24
 _E,2 C,2 D,4 | G,,4 z G,G,A, | =B,2 B,2 z2 B,2 | =B,8- | B,4 C4 | z2 C,A,, B,,2 F,,2 | %30
 C,4 F,,2 F,D, | _E,C,D,B,, F,4 | B,,2 B,G, A,E,F,C, | G,4 C,4 | z2 A,,4 A,,A,, | %35
 ^F,,2 F,,2 z2 ^F,2 | G,4 C,4 | D,4 G,,2 G,2- | G,2 G,G, E,3 E, | F,4 z2 F,2 | B,,3 A,, B,,2 D,2 | %41
 C,8 | F,,3 F, E,2 D,C, | D,4 C,4 | G,4 D,4 | A,4 E,4 | F,4 G,4 | C,2 C,2 B,,2 A,,G,, | A,,4 G,,4 | %49
 D,4 A,,4 | G,,4 F,,4 | C,8 | F,,2 F,2 E,4 | D,4 C,4 | B,,4 A,,4 | G,,4 A,,3 A,, | %56
 B,,3 A,, B,,2 D,2 | C,8 | F,,8 |[M:6/2] F,16 G,8 | A,16 =B,8 | C8 C,8 D,8 | E,16 E,8 | F,16 F,8 | %64
 C,16 B,,8 | A,,16 G,,8 | F,,16 F,,8 | C,16 C,8 | F,,16 F,,8 | B,,16 B,,8 | F,8 F,,8 G,,8 | %71
 A,,16 =B,,8 | C,16 C,8 | G,16 F,8 | G,24 | C,16 C,8 | G,,16 G,,8 | C,16 C,8 | G,16 C,8 | %79
 G,16 G,8 | C,16 C,8 | F,16 F,8 | C,16 C,8 | F,8 F,8 G,8 | A,16 =B,8 | C8 C,8 D,8 | E,16 E,8 | %87
 F,16 F,8 | C,16 B,,8 | G,,16 G,,8 | F,,16 F,,8 | C,16 C,8 | F,,16 F,,8 | B,,16 B,,8 | %94
 F,8 F,,8 G,,8 | A,,16 =B,,8 | C,16 C,8 | G,16 F,8 | G,24 | C,16 C,8 | G,,16 G,,8 | C,24 | %102
 G,16 C,8 | G,24 | C,24 | F,16 F,8 | C,24 | F,16 F,8 | B,,16 B,,8 | F,24 | %110
[M:4/4] B,,2 B,,B,, F,2 G,2 | D,4 z _E,E,E, | B,,2 C,2 G,,2 F,,2 | G,,4 C,2 C,D, | E,4 F,4 | %115
 F,,4 B,,4- | B,,4 A,,4 | C,8 | F,,8- | F,,8 |] %120

